!!!!SEGMENT: pl-wtm--a-43-196-99--001-014_kazuro-stanislaw--25-piesni-dzieciecych-z-fortepianem-op-49-kolysanka-lalek.krn
!!!cenid: 19xx:210
!!!COM: Kazuro, Stanisław
!!!COM-rismID: pe50047136
!!!CDT: 1881/08/02-1961/11/30
!!!CNT: Polish
!!!GTL: 25 Pieśni dziecięcych z fortepianem, op. 49
!!!OTL: Kołysanka lalek
!!!OMV: 014
!!!PDT: 1950
!!!AGN:
!!!YEC: Copyright 2022 Narodowy Instytut Fryderyka Chopina (https://polishscores.org)
!!!YEM: License CC-BY-4.0 (https://creativecommons.org/licenses/by/4.0)
!!!SMS-siglum: PL-Wtm
!!!SMS-shelfmark: A-43.196/99
!!!SMS-variant:
!!!SMS-altvar:
!!!SMS-shelfwork: 001-014 G
!!!NIFC-rismSourceID: 1001164821
!!!NIFC-rismChildID: 1001164821
!!!NIFC-islandoraID: pl-wtm:43198
!!!URL-pdf-islandora: https://repozytorium.nifc.pl/islandora/object/pl-wtm:43198/datastream/PDF/view
!!!URL-scan: https://polish.musicsources.pl/pl/lokalizacje/galeria/druki-muzyczne/22428/16 @EN{Scan on Polish Music Sources Website} @PL{Skany w portalu Dziedzictwo Muzyki Polskiej w otwartym dostępie}
!!!IIIF:
!!!ONB-nifc:
!!!AIN: 1 canto 1 piano
!!!key: G
**kern	**kern	**dynam	**kern	**text	**dynam
*part2	*part2	*part2	*part1	*part1	*part1
*staff3	*staff2	*staff2/3	*staff1	*staff1	*
*IGacmp	*IGacmp	*	*	*	*
*ICklav	*ICklav	*	*ICvox	*	*
*Ipiano	*Ipiano	*	*Icanto	*	*
*I"	*I"	*	*I"	*	*
*I'	*I'	*	*I'	*	*
*clefF4	*clefG2	*	*clefG2	*	*
*k[f#]	*k[f#]	*	*k[f#]	*	*
*G:	*G:	*	*G:	*	*
*M6/8	*M6/8	*	*M6/8	*	*
*>[A,A1,B,A,A2]	*>[A,A1,B,A,A2]	*>[A,A1,B,A,A2]	*>[A,A1,B,A,A2]	*>[A,A1,B,A,A2]	*>[A,A1,B,A,A2]
=1	=1	=1	=1	=1	=1
*	*^	*	*	*	*
*>A	*>A	*>A	*>A	*>A	*>A	*>A
!!LO:TX:t=P:problem:oddech zapisany jako v
!!LO:TX:a:B:t=Andante.
(8GG\L	4.ff#: 4.dd:/	4.g:\	p	2.r	.	.
8D\	.	.	.	.	.	.
8B\J)	.	.	.	.	.	.
(8B-X\L	4.cc: 4.f#:/	4.e:\	.	.	.	.
8A\	.	.	.	.	.	.
8D\J)	.	.	.	.	.	.
=2	=2	=2	=2	=2	=2	=2
(8GG\L	4.ff#: 4.dd:/	4.g:\	.	2.r	.	.
8D\	.	.	.	.	.	.
8Bn\J)	.	.	.	.	.	.
(8B-X\L	4.cc: 4.e:/	4.f#:\	.	.	.	.
8A\	.	.	.	.	.	.
8D\J)	.	.	.	.	.	.
=3	=3	=3	=3	=3	=3	=3
*^	*	*	*	*	*	*
(8GG\L	4.ryy	4.g:/	4.f#: 4.B:\	.	2.r	.	.
8D\	.	.	.	.	.	.	.
8D#X\J)	.	.	.	.	.	.	.
8G#X'/L	(8E\L	(8dn'/L	8c\L	.	.	.	.
8A#X'/	8F#\	8e'/	8d\	.	.	.	.
8B#X'/J	8G#X\J)	8f#'/J)	8e\J	.	.	.	.
=4	=4	=4	=4	=4	=4	=4	=4
!!LO:TX:a:B:t=1.
*>A1	*>A1	*>A1	*>A1	*>A1	*>A1	*>A1	*>A1
2.c/	2.D\	2.dd/	2.a# 2.f#\	.	2.r	.	.
=5||	=5||	=5||	=5||	=5||	=5||	=5||	=5||
!!LO:TX:a:B:t=2.
*>A2	*>A2	*>A2	*>A2	*>A2	*>A2	*>A2	*>A2
8G\L	4.ryy	4.g/	4.d 4.B\	.	2.r	.	.
8D#X\	.	.	.	.	.	.	.
!	!	!LO:TX:b:i:t=Fine.	!	!	!	!	!
8Dn\J	.	.	.	.	.	.	.
8qC#X/	.	.	.	.	.	.	.
4.D/	4.GG\	4.gg/	4.b\	.	.	.	.
*v	*v	*	*	*	*	*	*
!!LO:LB:g=original
=6||	=6||	=6||	=6||	=6||	=6||	=6||
*>B	*>B	*>B	*>B	*>B	*>B	*>B
!!LO:TX:a:i:t=Semplice
!	!	!	!	!	!	!LO:DY:a
8GG\L	4ff#: 4dd:/	2.b:\	p	4b\	U	p
8D\	.	.	.	.	.	.
8G\J	8bb 8ee/	.	.	8ee\	na-	.
8B\L	4aa 4dd/	.	.	4dd\	-sze-	.
8d\	.	.	.	.	.	.
8f#\J	8ff# 8dd/	.	.	8b\	-go	.
=7	=7	=7	=7	=7	=7	=7
8AA\L	8r	8ryy	.	4.a/	sy-	.
8E\	16ee/LL	4cc 4a\	.	.	.	.
.	16ff#/J	.	.	.	.	.
8A\J	8ee/J	.	.	.	.	.
4.e\	8r	8ryy	.	4.e/	-nka	.
.	8cc/L	4g#X\	.	.	.	.
.	8b/J	.	.	.	.	.
*	*v	*v	*	*	*	*
=8	=8	=8	=8	=8	=8
8D\L	(16f#\LL	.	4f#/	nie-	.
.	16a#X\	.	.	.	.
8An\	16cc\	.	.	.	.
.	16dd\	.	.	.	.
8d\J	16ff#\	.	8b\	-ba	.
.	16gg\JJ)	.	.	.	.
*clefG2	*	*	*	*	*
8f#\L	8aaL 8ee 8cc'\	.	4a/	o-	.
8a\	8ccc 8gg 8ee'\	.	.	.	.
8dd\J	8eeeJ 8ccc 8ff#'\	.	8f#/	-kru-	.
*clefF4	*	*	*	*	*
!!LO:LB:g=original
=9	=9	=9	=9	=9	=9
*clefG2	*	*	*	*	*
8ee'\L	8fff#L 8ddd 8bb'\	.	4.e/	-szy-	.
8b'\	8ddd 8bb 8gg'\	.	.	.	.
8e'\J	8bbJ 8gg 8ee'\	.	.	.	.
4.d/	8ggL 8ee 8cc'\	.	4d/	-nka,	.
.	8ee 8cc 8g#X'\	.	.	.	.
.	8ddJ 8a#X 8f#'\	.	8r	.	.
*clefF4	*	*	*	*	*
=10	=10	=10	=10	=10	=10
!	!	!	!	!	!LO:HP:a
8GG\L	(16g\LL	.	4g/	u	<
.	16a#X\	.	.	.	.
8D\	16b\	.	.	.	.
.	16dd#X\	.	.	.	.
8G\J	16ee\	.	8a/	na-	.
.	16ff#\JJ	.	.	.	.
8B\L	4gg 4dd#X 4b\)	.	4b\	-szej	[
8g\	.	.	.	.	.
8f#\J	8ff#X 8ddn 8b-X\	.	8dd\	có-	.
=11	=11	=11	=11	=11	=11
*	*^	*	*	*	*
4.e\	8r	8ryy	.	4.ee\	-re-	.
.	16gg#X/LL	4ee 4cc\	.	.	.	.
.	16aa/J	.	.	.	.	.
.	8gg#/J	.	.	.	.	.
*clefG2	*	*	*	*	*	*
!LO:TX:b:t=m.s.	!	!	!	!	!	!
4.bb^\	8ff#L 8dd 8b'\	4.ryy	.	4.b\	-czki	.
.	8dd 8b 8g#X'\	.	.	.	.	.
.	8bJ 8gn 8e'\	.	.	.	.	.
*clefF4	*	*	*	*	*	*
!!LO:PB:g=original
=12	=12	=12	=12	=12	=12	=12
(<4.A#X\	8ccL 8f#/	4.e\	.	4ff#\	z gwia-	.
.	8dd/	.	.	.	.	.
.	8cc/J	.	.	8ee\	-zdek	.
4An\	8bL 8f# 8d/	4.ryy	.	4dd\	pa-	.
.	8b 8f# 8d/	.	.	.	.	.
8G\	8aJ 8e 8c#X/	.	.	8cc#X\	-cio-	.
*	*v	*v	*	*	*	*
=13	=13	=13	=13	=13	=13
!	!	!	!	!	!LO:HP:a
4.F#\	8gL 8d 8B/	.	4.b\	-re-	>
.	8g 8d 8B/	.	.	.	.
.	8gJ 8d 8B/	.	.	.	.
!	!LO:TX:b:i:t=rit.	!	!	!	!
8E\L	4.f# 4.c 4.A/	.	4.dd\	-czki;	]
8E-X\	.	.	.	.	.
8D\J	.	.	.	.	.
=14	=14	=14	=14	=14	=14
*^	*^	*	*	*	*
!	!	!LO:TX:b:i:t=Tempo	!	!	!LO:TX:a:i:t=Tempo	!	!LO:DY:b:rj
8En/L	4.AA\)	4e/	[4.c\	.	4cc\	tu-	pp
8F#/	.	.	.	.	.	.	.
8G#X/J	.	8b/	.	.	8b\	-rku-	.
8A\L	4.ryy	4a/	8c\L]	.	4a/	-so-	.
8B\	.	.	8d\	.	.	.	.
8B#\J	.	8g/	8d#X\J	.	8g/	-we	.
*v	*v	*	*	*	*	*	*
=15	=15	=15	=15	=15	=15	=15
4.c#X\	8bL 8g 8e/	4.ryy	.	4.b\	krą-	.
.	8b 8g 8e/	.	.	.	.	.
.	8bJ 8g 8e/	.	.	.	.	.
*clefG2	*	*	*	*	*	*
!LO:TX:b:t=m.s.	!	!	!	!	!	!
4.g/	8e/L	8dL 8B\	.	4.e/	-żki,	.
.	8e/	8d 8B\	.	.	.	.
.	8e/J	8dJ 8B\	.	.	.	.
*clefF4	*	*	*	*	*	*
!!LO:LB:g=original
=16	=16	=16	=16	=16	=16	=16
*^	*	*	*	*	*	*
8F#/L	4.BB\	4a/	4d\	.	4a/	ni-	.
8G/	.	.	.	.	.	.	.
8A/J	.	8g/	8e-X\	.	8g/	-za-	.
8B\L	4.ryy	16d/LL	4.ryy	.	4f#,/	-ne	.
.	.	16f#/	.	.	.	.	.
8d\	.	16a#X/	.	.	.	.	.
.	.	16b/	.	.	.	.	.
8e\J	.	16cc#X/	.	.	8e/	na	.
.	.	16dd/JJ	.	.	.	.	.
*v	*v	*	*	*	*	*	*
=17	=17	=17	=17	=17	=17	=17
4.g\	8ee#XL 8cc#X/	8b\L	.	4.g/	wstą-	.
.	8ee# 8cc#/	8b\	.	.	.	.
.	8ee#J 8cc#/	8b\J	.	.	.	.
4.f#\	8ff#L 8dd/	8b-X\L	.	4.d/	-żki,	.
.	8ff# 8dd/	8b-\	.	.	.	.
.	8ff#J 8dd/	8b-\J	.	.	.	.
=18	=18	=18	=18	=18	=18	=18
!	!	!	!	!	!	!LO:HP:a
4e\	8gg/L	4bn 4g\	.	4e/	se-	<
.	8dd#X/	.	.	.	.	.
8A#X\	8ee/J	8f#\	.	8f#,/	-rce	.
4B\	8ddn/L	4g 4e-X\	.	4g/	ru-	.
.	8cc/	.	.	.	.	[
8An\	8b/J	8ryy	.	8b\	-bi-	.
*	*v	*v	*	*	*	*
!!LO:LB:g=original
=19	=19	=19	=19	=19	=19
(4.A-X\	8bL 8f# 8d/	.	4.dd\	-no-	.
.	8b 8f# 8d/	.	.	.	.
.	8bJ 8f# 8d/	.	.	.	.
!	!	!	!LO:TX:t=P:problem:dłuższy oddech/większa cezura (?)	!	!
4.G\)	8aL 8e 8c#X/	.	4.ee,\	-we	.
.	8a 8e 8c#/	.	.	.	.
.	8aJ 8e 8c#/	.	.	.	.
=20	=20	=20	=20	=20	=20
*	*^	*	*	*	*
!	!	!	!	!	!	!LO:HP:a
!	!	!	!	!	!	!LO:DY:b:rj
4.D\	8a#X/L	4.f# 4.cn\	.	4dd\	o-	pp >
.	8dd/	.	.	.	.	.
.	8b/J	.	.	8b\	-boj-	.
4.GG/	4an/	8e#XL 8c#X\	.	4a,/	-gu	.
.	.	8d#X 8B\	.	.	.	.
.	8f#/	8enJ 8cn\	.	8e/	pod	]
=21	=21	=21	=21	=21	=21	=21
8G\L	2.g 2.dn/	2.B\	.	4.g/	gło-	.
8D#X\	.	.	.	.	.	.
8Dn\J	.	.	.	.	.	.
4.GG/	.	.	.	4.g/	-wę.	.
*	*v	*v	*	*	*	*
=:|!	=:|!	=:|!	=:|!	=:|!	=:|!
*-	*-	*-	*-	*-	*-
!!!system-decoration: s1{(s2,s3)}
!!!RDF**kern: > = above
!!!RDF**kern: < = below
!!!RDF**kern: N = linked
!!!ENC: Andrzej Gręziak
!!!EED: Katarzyna Serwa
!!!END: 2025-03-29
!!!EEV: 2025-04-02
